svgs/thin/cubes-stacked.svg

<svg xmlns="http://www.w3.org/2000/svg" viewBox="0 0 448 512"><!--! Font Awesome Pro 6.5.1 by @fontawesome - https://fontawesome.com License - https://fontawesome.com/license (Commercial License) Copyright 2023 Fonticons, Inc. --><path d="M288 48H224c-8.8 0-16 7.2-16 16v64c0 8.8 7.2 16 16 16h64c8.8 0 16-7.2 16-16V64c0-8.8-7.2-16-16-16zM224 32h64c17.7 0 32 14.3 32 32v64c0 17.7-14.3 32-32 32H224c-17.7 0-32-14.3-32-32V64c0-17.7 14.3-32 32-32zM90.7 220.8c-7.7 4.4-10.3 14.2-5.9 21.9l32 55.4c4.4 7.7 14.2 10.3 21.9 5.9l55.4-32c7.7-4.4 10.3-14.2 5.9-21.9l-32-55.4c-4.4-7.7-14.2-10.3-21.9-5.9l-55.4 32zM71 250.7c-8.8-15.3-3.6-34.9 11.7-43.7l55.4-32c15.3-8.8 34.9-3.6 43.7 11.7l32 55.4c8.8 15.3 3.6 34.9-11.7 43.7l-55.4 32c-15.3 8.8-34.9 3.6-43.7-11.7L71 250.7zM352 208H288c-8.8 0-16 7.2-16 16v64c0 8.8 7.2 16 16 16h64c8.8 0 16-7.2 16-16V224c0-8.8-7.2-16-16-16zm-96 16c0-17.7 14.3-32 32-32h64c17.7 0 32 14.3 32 32v64c0 17.7-14.3 32-32 32H288c-17.7 0-32-14.3-32-32V224zm80 160v64c0 8.8 7.2 16 16 16h64c8.8 0 16-7.2 16-16V384c0-8.8-7.2-16-16-16H352c-8.8 0-16 7.2-16 16zm-16 0c0-17.7 14.3-32 32-32h64c17.7 0 32 14.3 32 32v64c0 17.7-14.3 32-32 32H352c-17.7 0-32-14.3-32-32V384zM192 368c-8.8 0-16 7.2-16 16v64c0 8.8 7.2 16 16 16h64c8.8 0 16-7.2 16-16V384c0-8.8-7.2-16-16-16H192zm0-16h64c17.7 0 32 14.3 32 32v64c0 17.7-14.3 32-32 32H192c-17.7 0-32-14.3-32-32V384c0-17.7 14.3-32 32-32zM32 368c-8.8 0-16 7.2-16 16v64c0 8.8 7.2 16 16 16H96c8.8 0 16-7.2 16-16V384c0-8.8-7.2-16-16-16H32zM0 384c0-17.7 14.3-32 32-32H96c17.7 0 32 14.3 32 32v64c0 17.7-14.3 32-32 32H32c-17.7 0-32-14.3-32-32V384z"/></svg>

<svg xmlns="http://www.w3.org/2000/svg" viewBox="0 0 448 512"><!--! Font Awesome Pro 6.1.1 by @fontawesome - https://fontawesome.com License - https://fontawesome.com/license (Commercial License) Copyright 2022 Fonticons, Inc. --><path d="M288 32C305.7 32 320 46.33 320 64V128C320 145.7 305.7 160 288 160H224C206.3 160 192 145.7 192 128V64C192 46.33 206.3 32 224 32H288zM288 48H224C215.2 48 208 55.16 208 64V128C208 136.8 215.2 144 224 144H288C296.8 144 304 136.8 304 128V64C304 55.16 296.8 48 288 48zM70.96 250.7C62.12 235.4 67.37 215.8 82.67 206.1L138.1 174.1C153.4 166.1 172.1 171.4 181.8 186.7L213.8 242.1C222.6 257.4 217.4 276.1 202.1 285.8L146.7 317.8C131.4 326.6 111.8 321.4 102.1 306.1L70.96 250.7zM84.81 242.7L116.8 298.1C121.2 305.8 131 308.4 138.7 303.1L194.1 271.1C201.7 267.5 204.4 257.7 199.1 250.1L167.1 194.7C163.5 187 153.7 184.4 146.1 188.8L90.67 220.8C83.02 225.2 80.4 235 84.81 242.7V242.7zM256 224C256 206.3 270.3 192 288 192H352C369.7 192 384 206.3 384 224V288C384 305.7 369.7 320 352 320H288C270.3 320 256 305.7 256 288V224zM288 208C279.2 208 272 215.2 272 224V288C272 296.8 279.2 304 288 304H352C360.8 304 368 296.8 368 288V224C368 215.2 360.8 208 352 208H288zM320 384C320 366.3 334.3 352 352 352H416C433.7 352 448 366.3 448 384V448C448 465.7 433.7 480 416 480H352C334.3 480 320 465.7 320 448V384zM336 448C336 456.8 343.2 464 352 464H416C424.8 464 432 456.8 432 448V384C432 375.2 424.8 368 416 368H352C343.2 368 336 375.2 336 384V448zM256 352C273.7 352 288 366.3 288 384V448C288 465.7 273.7 480 256 480H192C174.3 480 160 465.7 160 448V384C160 366.3 174.3 352 192 352H256zM192 368C183.2 368 176 375.2 176 384V448C176 456.8 183.2 464 192 464H256C264.8 464 272 456.8 272 448V384C272 375.2 264.8 368 256 368H192zM0 384C0 366.3 14.33 352 32 352H96C113.7 352 128 366.3 128 384V448C128 465.7 113.7 480 96 480H32C14.33 480 0 465.7 0 448V384zM16 384V448C16 456.8 23.16 464 32 464H96C104.8 464 112 456.8 112 448V384C112 375.2 104.8 368 96 368H32C23.16 368 16 375.2 16 384z"/></svg>
